X:1
T:Work While the Day Lasts
T:Alonzo Judson Abbey
T:Work While the Day Lasts
T:Public Domain
T:Public Domain
C:Alonzo Judson Abbey
Z:Public Domain
%%score ( 1 2 ) ( 3 4 )
L:1/8
M:4/8
K:Gb
V:1 treble 
V:2 treble 
V:3 bass 
V:4 bass 
V:1
 ([GB]/[Ac]/) | [Bd][ce][Bd]([GB]/[Ac]/) | [Bd][ce] [Bd]2 | [DG][DG]/[DG]/[FA][GB] | %4
w: 1.~The *|Mas- ter bids you *|work for Him,|Work while the day doth|
w: 2.~Why *|wait ye here, and *|i- dle stand,|When earth is filled with|
w: 3.~Go *|to the hearts, bowed *|down with care,|Tell them of rest on|
 [FA]3 [FA]/[GB]/ | [Ac][Bd][Ac][FA]/[GB]/ | [Ac][Bd][Ac][Ec] | [DB]>[DB][CA][DB] | [B,G]3 || %9
w: last; For the|hand will fail, and the|eye grow dim, And|night will come at|last.|
w: woe? With a|word of cheer, and a|help- ing hand, Go|to the suf- fering,|go.|
w: high; Wi- th|many a star in your|crown so fair, That|waits you by and|by.|
"^Refrain" [B,D] | [CE][EG][Ec][CE]/[CE]/ | [B,D][B,G] [DB]2 | [DA][DA]/[DA]/[DB][G=c] | %13
w: Then|work, work, work with a|will- ing mind,|Work with a right good|
w: ||||
w: ||||
 [Fd]3 [GB]/[Gc]/ | [Gd][Ge][Gd][GB]/[Gc]/ | [Gd][Ge][Gd][Gc] | [GB]>[GB][FA][FB] | G3 |] %18
w: will, While the|morn- ing dawns and the|sun goes down, Tho’|i- dle hands are|still.|
w: |||||
w: |||||
V:2
 x | x4 | x4 | x4 | x4 | x4 | x4 | x4 | x3 || x | x4 | x4 | x4 | x4 | x4 | x4 | x4 | G3 |] %18
V:3
 z | G,,G,G, z | G,,G, G,2 | [B,,D][B,,D]/[B,,D]/[D,D][G,D] | [D,D]3 z | D,,D,D, z | %6
w: |~ ~ ~|~ ~ ~|~ ~ ~ ~ ~|~|~ ~ ~|
 D,,D,D,[C,G,] | [D,G,]>[D,G,][D,F,][D,F,] | [G,,G,]3 || [G,,G,] | [C,G,] z [C,G,] z | %11
w: ~ ~ ~ ~|~ ~ ~ ~|~|Then|work, work,|
 [G,,G,] z G,2 | [D,F,][D,F,]/[D,F,]/G,[E,G,] | [D,A,]3 G,/[G,A,]/ | [G,B,][G,C][G,B,]G,/[G,A,]/ | %15
w: work, work,||||
 [G,B,][C,E][G,B,][C,E] | [D,D]>[D,D][D,C][D,E] | [G,,B,]3 |] %18
w: |||
V:4
 x | x4 | x4 | x4 | x4 | x4 | x4 | x4 | x3 || x | x4 | x2 G,2 | x2 G, x | x3 G,/ x/ | x3 G,/ x/ | %15
 x4 | x4 | x3 |] %18

